X: 526
P: Longways for as many as will
M: C|
L: 1/8
K: Bb
ff ga b2 ab | gg ag ^f2 de/f/ | gg gf =e2 cd/e/ | fd c>B B4 |]
M:6/4
L:1/4
dfd c>BA | B2F B2c |  dfd c>BA | B3 d3 |]\
dfd f>ed | cec e2f | g>ab fde | c3 B3 |]

